svg/展开2.svg

<svg width="24" height="24" viewBox="0 0 24 24" fill="none" xmlns="http://www.w3.org/2000/svg"><circle cx="12" cy="12" r="12" fill="#F4F4F5"/><path d="M9.7143 7.42867H7.42859V9.71438M7.42859 7.42867L10.2857 10.2858M14.2857 7.42867H16.5714V9.71438M16.5714 7.42867L13.7143 10.2858M9.7143 16.5715H7.42859V14.2858M7.42859 16.5715L10.2857 13.7144M16.5714 16.5715L13.7143 13.7144M14.2857 16.5715H16.5714V14.2858" stroke="#4A5565" stroke-width="1.14286" stroke-linecap="round" stroke-linejoin="round"/><defs><clipPath id="clip0_326_19041"><rect width="24" height="24" fill="white"/></clipPath></defs></svg>

<svg fill="none" viewBox="0 0 24 24"><circle cx="12" cy="12" r="12" fill="#F4F4F5"/><path stroke="#4A5565" stroke-linecap="round" stroke-linejoin="round" stroke-width="1.143" d="M9.714 7.429H7.43v2.285m0-2.285 2.857 2.857m4-2.857h2.285v2.285m0-2.285-2.857 2.857m-4 6.286H7.43v-2.286m0 2.286 2.857-2.858m6.285 2.858-2.857-2.858m.572 2.858h2.285v-2.286"/></svg>
